assets/restore_wallet.svg

<svg fill="none" height="37" viewBox="0 0 38 37" width="38" xmlns="http://www.w3.org/2000/svg"><path d="m37.1198 0h-14.3439c-.4859 0-.8801.397747-.8801.890388v17.536212c0 .4921.3942.8904.8801.8904h2.9325l-6.7082 8.8165-6.7066-8.8165h2.9324c.486 0 .8802-.3983.8802-.8904v-17.536212c0-.492641-.3942-.890388-.8802-.890388h-14.345818c-.485996 0-.880182.397747-.880182.890388v34.908912c0 .4921.394186.8904.880182.8904h36.239618c.488 0 .8802-.3983.8802-.8904v-34.908912c0-.492641-.3922-.890388-.8802-.890388z" fill="#00a1cc"/></svg>

<svg width="38" height="37" viewBox="0 0 38 37" fill="none" xmlns="http://www.w3.org/2000/svg">
<path d="M37.1198 0H22.7759C22.29 0 21.8958 0.397747 21.8958 0.890388V18.4266C21.8958 18.9187 22.29 19.317 22.7759 19.317H25.7084L19.0002 28.1335L12.2936 19.317H15.226C15.712 19.317 16.1062 18.9187 16.1062 18.4266V0.890388C16.1062 0.397747 15.712 0 15.226 0H0.880182C0.394186 0 0 0.397747 0 0.890388V35.7993C0 36.2914 0.394186 36.6897 0.880182 36.6897H37.1198C37.6078 36.6897 38 36.2914 38 35.7993V0.890388C38 0.397747 37.6078 0 37.1198 0Z" fill="#00A1CC"/>
<defs>
<linearGradient id="paint0_linear_4892_82408" x1="19" y1="0" x2="19" y2="36.6897" gradientUnits="userSpaceOnUse">
<stop stop-color="#00A1CC"/>
<stop offset="1" stop-color="#0E83A3"/>
</linearGradient>
</defs>
</svg>
